X: 1055
T: Bold John O'Leary
R:double jig
N:"collected by Mahony"
B:O'Neill's 1055
Z:Transcribed by henrik.norbeck@mailbox.swipnet.se
M:6/8
L:1/8
K:D
a|ged cAG|FDE F2G|F>ED d>ef|{a}g>fg eag|
fed cAG|cAG FDE|DFA eag|fdd d2:|
(f/g/)|a3 dfa|agb afd|g>gg gef|ged c>AG|
F>ED dcd|edc d2e|fed cAG|Adc d2:|


